brandFactory_export/1.Light/Movil_Dispositivo_Terminales_1Light.svg

<?xml version="1.0" encoding="UTF-8"?>
<svg width="24px" height="24px" viewBox="0 0 24 24" version="1.1" xmlns="http://www.w3.org/2000/svg" xmlns:xlink="http://www.w3.org/1999/xlink">
    <title>1.Light/Movil_Dispositivo_Terminales_1Light</title>
    <g id="Symbols" stroke="none" stroke-width="1" fill="none" fill-rule="evenodd">
        <g id="1.Light/Movil_Dispositivo_Terminales_1Light" fill="#5CB615" fill-rule="nonzero">
            <path d="M16.1647059,5.59552404e-13 C17.4016807,5.59552404e-13 18.292437,0.292436975 18.8907563,0.894117647 C19.4890756,1.49579832 19.7781513,2.38319328 19.7781513,3.61344538 L19.7781513,20 C19.7781513,21.2436975 19.4857143,22.1378151 18.8840336,22.7361345 C18.2890756,23.3277311 17.3983193,23.6134454 16.1647059,23.6134454 L7.64369748,23.6134454 C6.41008403,23.6134454 5.51932773,23.3277311 4.92436975,22.7361345 C4.32268908,22.1411765 4.0302521,21.2436975 4.0302521,20 L4.0302521,3.61344538 C4.0302521,2.40336134 4.32268908,1.51932773 4.9210084,0.914285714 C5.52941177,0.299159664 6.42016807,5.59552404e-13 7.64369748,5.59552404e-13 L16.1647059,5.59552404e-13 Z M16.1647059,0.672268908 L7.64369748,0.672268908 C6.60840336,0.672268908 5.87563025,0.904201681 5.39831933,1.38487395 C4.92773109,1.85882353 4.69915966,2.58823529 4.69915966,3.61344538 L4.69915966,20 C4.69915966,22.0907563 5.55294118,22.9411765 7.64033613,22.9411765 L16.1613445,22.9411765 C18.2521008,22.9411765 19.102521,22.0907563 19.102521,20 L19.102521,3.61344538 C19.102521,2.56806723 18.8773109,1.83193277 18.4134454,1.36806723 C17.9495798,0.904201681 17.2134454,0.672268908 16.1647059,0.672268908 Z M11.912605,18.8033613 C12.5176471,18.8033613 12.907563,19.1226891 12.907563,19.805042 C12.907563,20.1344538 12.8201681,20.3764706 12.6588235,20.5411765 C12.4840336,20.7193277 12.2285714,20.8067227 11.912605,20.8067227 C11.5966387,20.8067227 11.3411765,20.7193277 11.1663866,20.5411765 C11.005042,20.3764706 10.9142857,20.1344538 10.9142857,19.805042 C10.9142857,19.1226891 11.307563,18.8033613 11.912605,18.8033613 Z" id="Movil_Dispositivo_Terminales_1Light"></path>
        </g>
    </g>
</svg>

<svg width="24" height="24" viewBox="0 0 24 24" xmlns="http://www.w3.org/2000/svg"><path d="M16.165 0c1.237 0 2.127.292 2.726.894.598.602.887 1.49.887 2.72V20c0 1.244-.292 2.138-.894 2.736-.595.592-1.486.877-2.72.877h-8.52c-1.234 0-2.125-.285-2.72-.877-.601-.595-.894-1.492-.894-2.736V3.613c0-1.21.293-2.094.891-2.699C5.529.3 6.421 0 7.644 0h8.52zm0 .672H7.644c-1.036 0-1.768.232-2.246.713-.47.474-.699 1.203-.699 2.228V20c0 2.09.854 2.941 2.941 2.941h8.521c2.091 0 2.942-.85 2.942-2.941V3.613c0-1.045-.226-1.781-.69-2.245-.463-.464-1.2-.696-2.248-.696zm-4.252 18.131c.605 0 .995.32.995 1.002 0 .33-.088.571-.25.736-.174.178-.43.266-.745.266-.316 0-.572-.088-.747-.266-.161-.165-.252-.407-.252-.736 0-.682.394-1.002.999-1.002z" fill="#5CB615" fill-rule="nonzero"/></svg>
